X:607
T:Lady Charlotte Campbell's Waltz
S:MS.3339/Inglis.57
N:first pub. Nathaniel Gow, 1796
N:(flyleaf)
N:to Mr Cumming from a poor devil going to push his fortunes in South America
N: R.A., Dunkeld, 19 January 1819
M:3/8
L:1/16
Q:3/8=56
K:D
(3(ABc)|    d2dAdf     |d2dAdf       | d2dAdf      |({^d}e2)({d}e2)({d}e2)|
            c2cAce     |c2cAce       | c2cAce      |     d4              :|
(3(ABc)|    d2dAdf     |e2(ef)(ed)   | c2cAce      |     d2f2a2           |
            d2dAdf     |e2(ef).e.d   | c2(cA).c.e  |     d4              :|
   A2  |{de}f4e2       |d4f2         |(eg)(ce)(AG) |    (FA)(de).f.g      |
            f4e2       |d4f2         | c(eg).e.ce  |     d4              :|
(3(ABc)|   (dc)(de).f.g|a2(fa)(fa)   |b2(bc').d'.c'|     a2(fa)(fa)       |
            g2(eg)(eg) |f2(df)(df)   |e2(ce).c.A   |     d4  (3(ABc)      |
           (dc)(de).f.g|a2(fa)(fa)   |b2(bc').d'.c'|     a2(fa).b.a       |
         {a}g2(eg).a.g |f2(d'c').b.^a|b2(ge).c.e   |     d4              :|

